X: 30026
T: Off The Cuff
R: hornpipe
M: 4/4
K: Dmajor
|:fe|(3def ed BAFE|DB,A,B, D2 (3A,B,D|(3EFE (3DEF (3ABd (3efa|ba (3afd eefe|
dfed BAFE|DB,A,B, DE (3EFA|BA (3ABd (3DEF (3ABd|eddc d2:|
|:(3EFA|BA (3ABd (3DED (3EFA|BA (3ABd (3eEe fe|dBA_B =BA (3FED|(3EFD B,D EA, (3A,B,D|
(3EFE DC D2 (3EFA|BAAF A2 (3ABd|(3fga fe dB (3ABd|eddc d2:|

